X:1
T:Title
%%score { ( 1 4 ) | ( 2 3 ) }
L:1/8
Q:1/4=104
M:6/8
K:G
V:1 treble nm="Grand Piano"
V:4 treble 
V:2 bass 
V:3 bass 
V:1
 [B,D]2 [B,G] [B,DB]2 [CF] | [CA]3 .[B,G]3 | [B,D]2 [B,E] [B,G]2 [B,E] | [CF]6 | %4
w: P.~H.~Duncan * * *||||
 [CD]2 [DF] [FA]2 [GB] | [Ac]3 [G^c]3 | [Fd]2 [FA] [=F^G]2 [^FA] | [GB]6 | %8
w: ||||
 [B,D]2 [B,G] [B,DB]2 [CF] | [CA]3[K:bass] z3 | [=Fd]2 [DFB] [DFA]2 [DFG] | [CEc]6 | %12
w: ||||
 [A,EA]2 [A,EG] E2 G | D3 .B3 | [^CB]2 [CA] [DB]2 [=CA] | [B,G]6 | B3 _B3 | B3 .[B,G]3 | %18
w: ||||||
 [CA]2 [EG] E2 G | D6 | B3 _B3 | B3 .[B,G]3 | [^CG][CF][CE] [CF]2 [CG] | A6 | B2 B _B2 B | %25
w: |||||||
 B3 .[B,G]3 | [=Fd]2 [DFB] [DFA]2 [DFG] | [CEc]6 | [A,EA]2 [A,EG] E2 G | D3 .B3 | %30
w: |||||
 [^CB]2 [CA] [DB]2 [=CA] |[M:7/4] [B,G]6 z2 z2 z4 |] %32
w: ||
V:2
 z2 D, G,2 D, | z2 D, G,2 D, | z2 D, G,2 D, | z2 D, A,2 F, | z2 A, C2 A, | z2 F, A,2 E, | %6
 z2 A, C2 A, | [G,,G,]2 D, .G,,3 | z2 D, G,2 D, | z3 .[G,B,]3 | [B,,G,]2 B,, B,,2 B,, | C,6 | %12
 ^C,2 C, [C,G,_B,]2 [C,G,B,] | [D,G,B,]3 .[D,G,D]3 | [A,,G,]2 [A,,G,] [D,F,]2 [D,F,] | [G,,G,]6 | %16
 [G,D]2 G, [G,^C]2 G, | [G,D]3 .[G,,G,]3 | [C,E,]2 [C,G,] [C,G,C]2 [E,G,C] | [G,B,]6 | %20
 [G,D]2 G, [G,^C]2 G, | [G,D]3 .[G,,G,]3 | [A,,E,][A,,F,][A,,G,] [A,,A,]2 [A,,G,] | [D,F,C]6 | %24
 [G,D]2 [G,D] [G,^C]2 [G,C] | [G,D]3 .[G,,G,]3 | [B,,G,]2 B,, B,,2 B,, | C,6 | %28
 ^C,2 C, [C,G,_B,]2 [C,G,B,] | [D,G,B,]3 .[D,G,D]3 | [A,,G,]2 [A,,G,] [D,F,]2 [D,F,] | %31
[M:7/4] [G,,G,]6 z2 z2 z4 |] %32
V:3
 G,,6 | G,,6 | G,,6 | A,,6 | D,6 | A,,3 A,,3 | D,6 | x6 | G,,6 | G,,6 | x6 | x6 | x6 | x6 | x6 | %15
 x6 | x6 | x6 | x6 | x6 | x6 | x6 | x6 | x6 | x6 | x6 | x6 | x6 | x6 | x6 | x6 |[M:7/4] x14 |] %32
V:4
 x6 | x6 | x6 | x6 | x6 | x6 | x6 | z3 .G,3 | x6 | z2[K:bass] D, G2 D, | x6 | x6 | x6 | x6 | x6 | %15
 x6 | z2 D z2 ^C | x6 | x6 | x6 | z2 D z2 ^C | x6 | x6 | x6 | x6 | x6 | x6 | x6 | x6 | x6 | x6 | %31
[M:7/4] x14 |] %32

